X:1
T:Title
%%score { 1 | 2 }
L:1/8
M:2/4
K:D
V:1 treble nm="Grand Piano"
V:2 bass 
V:1
 z2 z[Q:1/4=78] [FA] | [DF][FA] [DF][FA] | [GB][FA] [EG][EG] | [CE][EG] [CE][EG] | [FA][EG] FF | %5
 EA Bc |[M:3/8] [CA]3 |[M:1/8] [FA] |[M:2/4] [Fd][FA] [Fd][Ac] | [GB][Gd] [FA][FA] | %10
 [Fd][FA] [Fd][DAc] | [DGB][DGd] [DFA][DGB] | [DFA][A,EG] [A,DF][K:bass][A,CE] |[M:3/8] [F,D]3 |] %14
V:2
 z2 z [D,A,] | [D,A,][D,A,] [D,A,][D,A,] | [A,,A,][A,,A,] [A,,A,][A,,A,] | %3
 [A,,A,][A,,A,] [A,,A,][A,,A,] | [A,,A,][A,,A,] [D,A,D][D,A,D] | [E,A,C][E,A,C] [E,^G,D][E,G,E] | %6
[M:3/8] [A,,A,]3 |[M:1/8] [D,A,] |[M:2/4] [D,A,][D,A,] [D,A,][D,D] | [D,D][D,B,] [D,D][D,A,] | %10
 [D,A,][D,A,] [D,A,]D, | G,,B,, D,G,, | A,,A,, A,,A,, |[M:3/8] D,3 |] %14

